!!!OTL: 57a. Der Wirthin Toechterlein.
!!!ODT: 1842
!!!ARE: Europa, Mitteleuropa, Deutschland, Schlesien
!!!SCT: E0057
!!!TXL: @@DE
!!!YEM: Copyright 1995, estate of Helmut Schaffrath.
**kern	**text
*ICvox	*
*M2/4	*
*k[f#]	*
*G:	*
!LO:TX:a:t=Ernſt.	!
!LO:TX:a:t=Schleſ. Mel. 1842.	!
{8d	Es
=1	=1
4g	rit-
8f#	-ten
8g	drei
=2	=2
4a	Rei-
(8g	-ter
8a)	wol
=3	=3
4b	ü-
8ccL	-ber
8bJ	den
=4	=4
4a	Rhein,
8r}	.
{8dd	bei
=5	=5
4cc	ei-
(<8a	-ner
8cc)	Frau
=6	=6
4b	Wir-
8g	-thin
8b/	da
=7	=7
(4a	kehr-
8f#)	-ten
8d	ſie
=8	=8
(8g/L	ein,
8b	.
8ddJ)}	.
{8dd	bei
=9	=9
4cc	ei-
8a	-ner
8cc	Frau
=10	=10
4b	Wir-
8g	-thin
8b	da
=11	=11
4a	kehr-
(8f#	-ten
8d)	ſie
=12	=12
4g	ein.
8r}	.
==	==
!!!AGN: erzaehlendes Volks - Lied, Sage, Mord, Ballade ?
!!!ONB: ESAC (Essen Associative Code) Database: ERK1
!!!AMT: simple duple
!!!AIN: vox
!!!EED: Helmut Schaffrath
!!!EEV: 1.0
!!!GTL: Sagen von Mordthaten, unschuldig Gesangeg und Hinrichtungen
!!!URL-scan: https://rosdok.uni-rostock.de/mcrviewer/recordIdentifier/rosdok_ppn745146120/iview2/phys_0252.iview2?x=-4.404412318551749&y=2044.489236590569&scale=0.6456904138606623&rotation=0&layout=singlePageLayout&logicalDiv=log_0009
!!!ENC: Anna Maria Matuszewska
!!!EEV: 2024/11/25
*-	*-
